X:1
R:Polska
T:Polska efter Urmakare Jonsson i Sveg
S:Från en YouTube-videoinspelning av Smörgåsklickarna
O:Jämtland
L:1/8
Q:1/4=140
M:3/4
K:Gm
Z:ABC-transkr. av Steve Simpson
z3/2 D/ |:G>d c>B A>G | ^F>A (3FAF D>D | G>d c>B A>G | ^F>A (3FAF D>D |$ G>d c>B A>G | 
^F>A (3FAF D>A | B>d c>B (3AG^F |1 G2 G2- G>D :|2 G2 G4 |]:$ G>B d>g (3bgb | (3a^fa (3gfg d>d | 
(3cdc (3BcB (3ABA | (3GAG (3^FGF D2 |$ G>B d>g (3bgb | (3a^fa (3gfg d>d | (3cdc (3BcB A>D | 
(3^FAB G4 :|

